X:1
T:Puis que fortune
T:Puis que fortune
T:Jean Le Cocq
C:Jean Le Cocq
%%score [ 1 2 [ 3 4 ] ]
L:1/8
Q:1/4=80
M:2/2
K:C
V:1 treble nm="Superius" snm="S"
V:2 treble nm="Altus" snm="A"
V:3 treble-8 nm="Tenor 1" snm="T 1"
V:4 treble-8 nm="Tenor 2" snm="T 2"
V:1
 A8 | A4 B4 | d6 cB | d2 c3 B AG | F2 A3 G F2 | E4 DEFG | A2 B2 A2 A2 | c3 d e2 a2 | g2 f2 ed f2- | %9
w: Puis|que for-|tu- * *||||* * ne'a sur|moy _ _ en-||
 fe e4 d2 | e4 z2 e2 | e2 g2 f2 ed | c2 c2 d2 e2 | f2 f2 e4 | z4 c4 | c4 B4 | AB cd e2 e2 | %17
w: * * * tre-|pris, las,|me doibt on de _|tout plai- sir _|_ ban- nir,|de|tout plai-|sir _ _ _ _ ban-|
 d2 c3 A d2- | d2 c2 d4 | z2 A2 A2 A2 | d4 z2 d2 | e2 g3 fed | c2 f2 e2 f2- | fedc BA B2 | %24
w: nir, [ban- * *|* * nir,]|et sans se-|cours in-|ces- sa- ment _ _|_ te- nir, _|_ _ _ _ _ _ _|
 GA Bc d2 e2- | ed cB A2 c2 | B2 A4 G2 | A4 z2 f2 |: f2 e2 f2 c2 | c2 B2 c2 e2 | e2 d2 e4 | %31
w: |||* mieulx|me vaul- droict, mieulx|me vaul- droict, mieulx|me vaul- droict,|
 z2 d2 d2 c2 | d2 A2 B2 c2 | A2 A2 G2 G2 | A2 c2 B3 c | d2 e3 ddc/B/ | c2 f2 ed d2- |1 %37
w: mieulx me vaul-|droict de la mort|es- tre pris, de|la mort es- tre|pris, de la _ _ _|mort es tre _ pris,|
 d2 c2 d2 f2 :|2 c2 f2 e2 d2- ||"^#" dc c2 d4- | d8 |] %41
w: _ mieulx- * me|mort es- * *|* * stre pris.|_|
V:2
 E8 | F4 G4 | F4 _B4 |"^b" A2 A,3 B, C2 | D2 F3 E D2- | D2 C2 D4 | z2 D2 F4 | G2 A3 B c2 | %8
w: Puis|que for-|tu- *|ne, puis que for-|tu- * * *|* * ne|a sur|moy- en- tre- pris,|
 z2 c2 c2 A2 |"^b" F2 B2 A4- | A2 c2 B2 A2- | A2 G2 A2 A2 | A2 c2 _B2 AG | F2 F2 G2 A2 | %14
w: a sur moy|en- * *||* tre- pris, las,|me doibt on de _|tout plai- sir ban-|
"^b""^b" B2 B2 A4- | A2 GF G4 | A2 A2 c2 G2- | GF/G/ A4 A2 | B2 A4 G2 | A2 E2 F4 | z2 D2 D2 D2 | %21
w: nir, de tout|_ _ _ plai-|sir ban- * *|* * * nir, de|tout plai- *|sir ban- nir,|et sans se-|
 G4 z2 G2 | A2 c3 BAG | F2 A2 G2 G2- | GF E2 D2 G2 | E6 F2 | G2 D2 E4 | C2 c2 c2 B2 |: c8 | %29
w: cours in-|ces- sa- * * *|ment te- * nir|_ _ _ _ _|||* mieulx me vaul-|droict,|
 z2 G2 F2 E2 | G8- | G4 z2 G2 | G2 F2 G4 | z4 z2 G2 | G2 F2 G2 G2 | _B2 B2 A2 G2 | A2 c2 B4 |1 %37
w: mieulx me vaul-|droict,|_ mieulx|me vaul- droict,|mieulx|me vaul- droict de|la mort es- tre|pris, _ _|
 A4 A2 B2 :|2"^b" A2 c2 B4 || A4 A4- | A8 |] %41
w: mieulx me vaul-|pris, es- *|tre pris.|_|
V:3
 c8 | d8 | d4 f4- | f2 ed f3 e |"^b" d3 c/B/ A4- | A4 z4 | z8 | z2 A2 c3 d | e2 a2 g2 f2 | %9
w: Puis|que|for- tu-||* * * ne|_||a sur _|_ moy en- tre-|
 a2 g2 f2 f2 | e2 c2 dc BA | B2 B2 A4- | A4 z4 | z4 z2 c2 | d2 e2 f4 | z2 e2 e2 g2 | f2 ed c2 c2 | %17
w: ptis, a sur moy|en- * * * * *|* tre- pris,|_|las,|me doubt on,|las, me doibt|on _ _ _ ban-|
 d2 e2 f2 f2 | e2 e4 d2- | d2 c2 d2 d2 | A4 z2 G2 | G2 G2 c4 | z2 A2 A2 A2 | d4 z2 d2 | e2 g3 fed | %25
w: nir de tout plai-|sir, de tout|_ plai- sir ban-|nir, et|sans se- cours,|et sans se-|cours in-|ces- sa- * * *|
 c2 A2 c2 c2 | dc cB/A/ B2 B2 | A4 z4 |: z2 e2 a4 | g4 c2 c2 | c2 B2 c4 | z2 B2 e4 | d4 G2 g2 | %33
w: ment, in- ces- sa-|ment _ _ _ _ _ te-|nir,|mieulx me|vaul- droict, mieulx|me vaul- droict,|mieulx me|vaul- droict, mieulx|
 g2 f2 g2 e2 | c2 c2 d2 e2 | d2 g2 f2 d2 | e2 a2 g3 f |1 e2 e2 f4 :|2 e2 a2 g3 f || e2 e2 d4- | %40
w: me vaul- droict de|la mort es- tre|pris, de la mort|es _ _ _|_ tre pris,|es- * * *|* tre pris.|
 d8 |] %41
w: _|
V:4
 A8 | D4 G4 | _B6 AG | F3 G A4 | D8 | z4 D4 | F2 G2 A2 d2 | c3 B AG F2 | E2 F2 C2 D2 | %9
w: Puis|que for-|tu- * *||ne|a|sur moy en- *||tre- pris, a sur|
 F2 G2 A2 d2 | c3 B/A/ G2 A2 | E4 z4 | z2 A2 _B2 c2 | d2 d2 c2 A2 | G2 G2 F4 | z4 E4 | %16
w: moy en- * *|* * * * tre-|pris,|las, me doibt|on de tout plai-|sir ban- nir,|las,|
 z2 A2 A2 c2 | _B2 AG F2 F2 | G2 A2 B2 B2 | A4 z2 D2 | D2 D2 G4 | C4 C2 C2 |"^#" F4 z2 D2 | %23
w: me doibt on|de tou _ _ plai-|sir _ _ ban-|nir, et|sans se- cours,|et sans se-|cours, et|
 D2 D2 G4 | z4 G4 | A2 c3 B A2 | G2 F2 E4 | z2 A2 d4 |: c4 F4 | z2 E2 A4 | G4 CDEF | G4 z4 | %32
w: sans se- cours|in-|ces- sa- * *|ment te- nir,|mieulx me|vau- droict,|mieulx me|vaul- droict, _ _ _|_|
 z2 d2 d2 c2 | d2 A2 B2 c2 | A2 A2 G2 G2 |"^b" G2 G2 A2 B2 | A2 F2 G2 G2 |1 A2 A2 d4 :|2 %38
w: mieulx me vaul-|droict de la mort|es- tre pris, de|la mort es- tre|pris, es- * tre|pris, mieulx me|
 A2 F2 G4 || A8- | A8 |] %41
w: pris, es- tre|pris.|_|

